Yaru++/apps/scalable/emerald.svg

<svg height="256" width="256" xmlns="http://www.w3.org/2000/svg" xmlns:xlink="http://www.w3.org/1999/xlink">
  <filter id="filter880" color-interpolation-filters="sRGB" height="1.025" width="1.023" x="-.01" y="-.01">
    <feGaussianBlur stdDeviation="1.083"/>
  </filter>
  <filter id="filter906" color-interpolation-filters="sRGB" height="1.101" width="1.091" x="-.05" y="-.05">
    <feGaussianBlur stdDeviation="4.332"/>
  </filter>
  <g transform="translate(-1.089394 -36.332879)">
    <path d="m76.974798 64.1329a13.029946 13.681533 0 0 0 -9.50429 4.321815l-48.85742 54.720645a13.029946 13.681533 0 0 0 -.368979 18.28252l100.972001 123.12147a13.029946 13.681533 0 0 0 19.74653 0l100.97202-123.12147a13.029946 13.681533 0 0 0 -.36894-18.28252l-48.85744-54.720645a13.029946 13.681533 0 0 0 -9.50433-4.321815h-52.11457z" filter="url(#filter906)" opacity=".1"/>
    <path d="m76.974798 64.1329a13.029946 13.681533 0 0 0 -9.50429 4.321815l-48.85742 54.720645a13.029946 13.681533 0 0 0 -.368979 18.28252l100.972001 123.12147a13.029946 13.681533 0 0 0 19.74653 0l100.97202-123.12147a13.029946 13.681533 0 0 0 -.36894-18.28252l-48.85744-54.720645a13.029946 13.681533 0 0 0 -9.50433-4.321815h-52.11457z" filter="url(#filter880)" opacity=".1"/>
    <path d="m76.974798 64.1329a13.029946 13.681533 0 0 0 -9.50429 4.321815l-48.85742 54.720645a13.029946 13.681533 0 0 0 -.368979 18.28252l100.972001 123.12147a13.029946 13.681533 0 0 0 19.74653 0l100.97202-123.12147a13.029946 13.681533 0 0 0 -.36894-18.28252l-48.85744-54.720645a13.029946 13.681533 0 0 0 -9.50433-4.321815h-52.11457z" opacity=".1"/>
    <path d="m77.88909 65.732895a12.801351 13.441506 0 0 0 -9.337548 4.245994l-48.000273 53.760631a12.801351 13.441506 0 0 0 -.362506 17.96178l99.200567 120.96144a12.801351 13.441506 0 0 0 19.4001 0l99.20058-120.96144a12.801351 13.441506 0 0 0 -.36247-17.96178l-48.00029-53.760631a12.801351 13.441506 0 0 0 -9.33759-4.245994h-51.20028z" fill="#cbe667"/>
    <path d="m76.798828 29.400391c-.860044-.000336-1.709142.085505-2.539062.261718a12.801351 13.441506 0 0 0 -.072266.015625c-.02539.0075-.046726.021827-.072266.029297-.789835.17808-1.564091.429018-2.304687.757813a12.801351 13.441506 0 0 0 -.058594.03125c-.0498.0224-.09698.049495-.146484.072265-.74686.347946-1.45572.760361-2.128907 1.253907-.0336.02613-.068112.047255-.101562.072265-.684954.51255-1.325878 1.095584-1.910156 1.75l-48.007813 53.767578a12.801351 13.441506 0 0 0 -3.443359 9.1875h59.71875l52.267578-67.199218zm51.201172 0 52.26758 67.199218h59.73242a12.801351 13.441506 0 0 0 -3.45703-9.1875l-48.00781-53.767578c-.5889-.659605-1.23272-1.250164-1.92383-1.765625a12.801351 13.441506 0 0 0 -.13281-.08789c-.6873-.49952-1.40886-.919183-2.17188-1.267578a12.801351 13.441506 0 0 0 -.05859-.029297c-.73622-.33152-1.50342-.591513-2.28907-.773438a12.801351 13.441506 0 0 0 -.02929 0 12.801351 13.441506 0 0 0 -.32031-.072265c-.78909-.158667-1.59268-.24842-2.40821-.248047z" fill="#76c22b" transform="translate(1.089393 36.332879)"/>
    <path d="m129.08939 267.33288 52.26667-134.39999h-104.533333z" fill="#76c22b"/>
    <g transform="translate(1.089393 36.332879)">
      <path d="m76.798828 29.400391a12.801351 13.441506 0 0 0 -9.335937 4.246093l-.583985.654297a12.801351 13.441506 0 0 1 7.919922-2.90039h51.201172 51.20117a12.801351 13.441506 0 0 1 9.33594 4.246093l48.00195 53.759766a12.801351 13.441506 0 0 1 .36133 17.96289l-99.09375 120.83008a12.801351 13.441506 0 0 0 1.89258-1.86914l99.20117-120.96094a12.801351 13.441506 0 0 0 -.36133-17.96289l-48.00195-53.759766a12.801351 13.441506 0 0 0 -9.33594-4.246093h-51.20117z" fill="#fff" opacity=".3"/>
      <path d="m239.95508 95.53125a12.801351 13.441506 0 0 1 -3.05469 7.83789l-99.20117 120.96094a12.801351 13.441506 0 0 1 -19.39844 0l-99.201171-120.96094a12.801351 13.441506 0 0 1 -3.052734-7.781249 12.801351 13.441506 0 0 0 3.052734 9.781249l99.201171 120.96094a12.801351 13.441506 0 0 0 19.39844 0l99.20117-120.96094a12.801351 13.441506 0 0 0 3.05469-9.83789z" opacity=".2"/>
    </g>
  </g>
</svg>

<svg xmlns="http://www.w3.org/2000/svg" xmlns:xlink="http://www.w3.org/1999/xlink" width="256" height="256" version="1.0">
 <defs>
  <linearGradient id="a">
   <stop id="stop2" offset="0" stop-color="#68676b"/>
   <stop id="stop4" offset=".8" stop-color="#424048"/>
   <stop id="stop6" offset="1" stop-color="#808080"/>
  </linearGradient>
  <radialGradient id="d" cx="279.422" cy="446.483" r="224" fx="279.422" fy="446.483" gradientTransform="matrix(1.34416,6e-4,-6.2e-4,1.38763,-121.22,-718.103)" gradientUnits="userSpaceOnUse" xlink:href="#a"/>
  <linearGradient id="e" x1="43.844" x2="-60" y1="234" y2="234" gradientTransform="matrix(1.0015,0,0,0.99993,72.09,56.015)" gradientUnits="userSpaceOnUse" xlink:href="#b"/>
  <linearGradient id="b">
   <stop id="stop11" offset="0" stop-color="#d5d3cf"/>
   <stop id="stop13" offset=".038" stop-color="#e3e2df"/>
   <stop id="stop15" offset=".077" stop-color="#c0bfbc"/>
   <stop id="stop17" offset=".923" stop-color="#c0bfbc"/>
   <stop id="stop19" offset=".962" stop-color="#e3e2df"/>
   <stop id="stop21" offset="1" stop-color="#d5d3cf"/>
  </linearGradient>
  <linearGradient id="linearGradient3919" x1="42" x2="54" y1="49" y2="49" gradientTransform="matrix(0.68426737,0,0,0.68426737,-51.579387,227.56429)" gradientUnits="userSpaceOnUse">
   <stop style="stop-color:#464646" id="stop25" offset="0"/>
   <stop style="stop-color:#464646;stop-opacity:0" id="stop27" offset="1"/>
  </linearGradient>
  <linearGradient id="linearGradient3831-3" x1="15" x2="15" y1="48" y2="8" gradientTransform="matrix(0.74912138,0,0,0.74912138,2.9232156,224.77708)" gradientUnits="userSpaceOnUse" spreadMethod="reflect" xlink:href="#linearGradient3825"/>
  <linearGradient id="linearGradient3825">
   <stop style="stop-color:#000000" id="stop30" offset="0"/>
   <stop style="stop-color:#000000" id="stop32" offset=".6"/>
   <stop style="stop-color:#000000;stop-opacity:0" id="stop34" offset="1"/>
  </linearGradient>
  <linearGradient id="linearGradient3862-3" x1="15" x2="15" y1="48" y2="8" gradientTransform="matrix(0,0.74912138,-0.74912138,0,72.966065,227.02444)" gradientUnits="userSpaceOnUse" spreadMethod="reflect" xlink:href="#linearGradient3825"/>
  <linearGradient id="linearGradient3831-3-6" x1="15" x2="15" y1="48" y2="8" gradientTransform="matrix(0.7491214,0,0,0.7491214,-61.700945,221.92589)" gradientUnits="userSpaceOnUse" spreadMethod="reflect" xlink:href="#linearGradient3825"/>
  <linearGradient id="linearGradient3862-3-5" x1="15" x2="15" y1="48" y2="8" gradientTransform="matrix(0,0.7491214,-0.7491214,0,8.3419061,224.17325)" gradientUnits="userSpaceOnUse" spreadMethod="reflect" xlink:href="#linearGradient3825"/>
  <linearGradient id="linearGradient4009">
   <stop style="stop-color:#f57900" id="stop4011" offset="0"/>
   <stop style="stop-color:#ffc286" id="stop4013" offset="1"/>
  </linearGradient>
  <linearGradient id="linearGradient3928">
   <stop style="stop-color:#61635f" id="stop3930" offset="0"/>
   <stop style="stop-color:#999b96" id="stop3932" offset="1"/>
  </linearGradient>
  <linearGradient id="linearGradient3697">
   <stop style="stop-color:#73d216" id="stop3699" offset="0"/>
   <stop style="stop-color:#adf06b" id="stop3701" offset="1"/>
  </linearGradient>
  <filter style="color-interpolation-filters:sRGB" id="filter880" width="1.023" height="1.025" x="-.01" y="-.01">
   <feGaussianBlur id="feGaussianBlur882" stdDeviation="1.083"/>
  </filter>
  <filter style="color-interpolation-filters:sRGB" id="filter906" width="1.091" height="1.101" x="-.05" y="-.05">
   <feGaussianBlur id="feGaussianBlur908" stdDeviation="4.332"/>
  </filter>
 </defs>
 <g transform="translate(3.7966102,-32.06779)">
  <g transform="translate(-4.8860036,-4.2650889)">
   <path d="m 76.974798,64.1329 a 13.029946,13.681533 0 0 0 -9.50429,4.321815 l -48.85742,54.720645 a 13.029946,13.681533 0 0 0 -0.368979,18.28252 L 119.21611,264.57935 a 13.029946,13.681533 0 0 0 19.74653,0 L 239.93466,141.45788 a 13.029946,13.681533 0 0 0 -0.36894,-18.28252 L 190.70828,68.454715 A 13.029946,13.681533 0 0 0 181.20395,64.1329 h -52.11457 z" style="opacity:0.1;filter:url(#filter906)"/>
   <path style="opacity:0.1;filter:url(#filter880)" d="m 76.974798,64.1329 a 13.029946,13.681533 0 0 0 -9.50429,4.321815 l -48.85742,54.720645 a 13.029946,13.681533 0 0 0 -0.368979,18.28252 L 119.21611,264.57935 a 13.029946,13.681533 0 0 0 19.74653,0 L 239.93466,141.45788 a 13.029946,13.681533 0 0 0 -0.36894,-18.28252 L 190.70828,68.454715 A 13.029946,13.681533 0 0 0 181.20395,64.1329 h -52.11457 z"/>
   <path d="m 76.974798,64.1329 a 13.029946,13.681533 0 0 0 -9.50429,4.321815 l -48.85742,54.720645 a 13.029946,13.681533 0 0 0 -0.368979,18.28252 L 119.21611,264.57935 a 13.029946,13.681533 0 0 0 19.74653,0 L 239.93466,141.45788 a 13.029946,13.681533 0 0 0 -0.36894,-18.28252 L 190.70828,68.454715 A 13.029946,13.681533 0 0 0 181.20395,64.1329 h -52.11457 z" style="opacity:0.1"/>
   <path style="fill:#cbe667" d="m 77.88909,65.732895 a 12.801351,13.441506 0 0 0 -9.337548,4.245994 L 20.551269,123.73952 a 12.801351,13.441506 0 0 0 -0.362506,17.96178 l 99.200567,120.96144 a 12.801351,13.441506 0 0 0 19.4001,0 L 237.99001,141.7013 a 12.801351,13.441506 0 0 0 -0.36247,-17.96178 L 189.62725,69.978889 a 12.801351,13.441506 0 0 0 -9.33759,-4.245994 h -51.20028 z"/>
   <path style="fill:#76c22b" d="M 76.798828 29.400391 C 75.938784 29.400055 75.089686 29.485896 74.259766 29.662109 A 12.801351 13.441506 0 0 0 74.1875 29.677734 C 74.16211 29.685234 74.140774 29.699561 74.115234 29.707031 C 73.325399 29.885111 72.551143 30.136049 71.810547 30.464844 A 12.801351 13.441506 0 0 0 71.751953 30.496094 C 71.702153 30.518494 71.654973 30.545589 71.605469 30.568359 C 70.858609 30.916305 70.149749 31.32872 69.476562 31.822266 C 69.442962 31.848396 69.40845 31.869521 69.375 31.894531 C 68.690046 32.407081 68.049122 32.990115 67.464844 33.644531 L 19.457031 87.412109 A 12.801351 13.441506 0 0 0 16.013672 96.599609 L 75.732422 96.599609 L 128 29.400391 L 76.798828 29.400391 z M 128 29.400391 L 180.26758 96.599609 L 240 96.599609 A 12.801351 13.441506 0 0 0 236.54297 87.412109 L 188.53516 33.644531 C 187.94626 32.984926 187.30244 32.394367 186.61133 31.878906 A 12.801351 13.441506 0 0 0 186.47852 31.791016 C 185.79122 31.291496 185.06966 30.871833 184.30664 30.523438 A 12.801351 13.441506 0 0 0 184.24805 30.494141 C 183.51183 30.162621 182.74463 29.902628 181.95898 29.720703 A 12.801351 13.441506 0 0 0 181.92969 29.720703 A 12.801351 13.441506 0 0 0 181.60938 29.648438 C 180.82029 29.489771 180.0167 29.400018 179.20117 29.400391 L 128 29.400391 z" transform="translate(1.0893934,36.332879)"/>
   <path style="fill:#76c22b" d="M 129.08939,267.33288 181.35606,132.93289 H 76.822727 Z"/>
   <path style="fill:#ffffff;opacity:0.3" d="M 76.798828 29.400391 A 12.801351 13.441506 0 0 0 67.462891 33.646484 L 66.878906 34.300781 A 12.801351 13.441506 0 0 1 74.798828 31.400391 L 126 31.400391 L 177.20117 31.400391 A 12.801351 13.441506 0 0 1 186.53711 35.646484 L 234.53906 89.40625 A 12.801351 13.441506 0 0 1 234.90039 107.36914 L 135.80664 228.19922 A 12.801351 13.441506 0 0 0 137.69922 226.33008 L 236.90039 105.36914 A 12.801351 13.441506 0 0 0 236.53906 87.40625 L 188.53711 33.646484 A 12.801351 13.441506 0 0 0 179.20117 29.400391 L 128 29.400391 L 76.798828 29.400391 z" transform="translate(1.0893934,36.332879)"/>
   <path style="opacity:0.2" d="M 239.95508 95.53125 A 12.801351 13.441506 0 0 1 236.90039 103.36914 L 137.69922 224.33008 A 12.801351 13.441506 0 0 1 118.30078 224.33008 L 19.099609 103.36914 A 12.801351 13.441506 0 0 1 16.046875 95.587891 A 12.801351 13.441506 0 0 0 19.099609 105.36914 L 118.30078 226.33008 A 12.801351 13.441506 0 0 0 137.69922 226.33008 L 236.90039 105.36914 A 12.801351 13.441506 0 0 0 239.95508 95.53125 z" transform="translate(1.0893934,36.332879)"/>
  </g>
 </g>
</svg>
